X: 2
T: Hector the Hero   [Bb]
C: J.S.Skinner
Z: 2000 John Chambers <jc:trillian.mit.edu>
N: With help from versions of <martin@easyweb.co.UK> and James Allwright's ABC version of the Nottingham Music Database.
H: Chronology from Nigel Gatherer <gatherer@argonet.co.uk> scots-l 2000-09-13:
H: Major-General Hector A. MacDonald
H: 1857 - Born in the Black Ilse
H: 1870 - Enlisted in 92nd Gordon Highlanders
H: 1879 - Served as a colour-sergeant in the Afghan War
H: 1880 - Promoted to 2nd Lieutenant at end of Afghan War
H: 1881 - Mentioned in despatches in 1st Boer Ware, South Africa
H: 1885 - Led military expedition up Nile (Sudan)
H: 1888 - Took part in Battle of Sunkin (Sudan)
H: 1889 - Won Distinguished Service Order (DSO) medal (Sudan service)
H: 1891 - Took part in Battle of Tokar (Sudan)
H: 1896 - Led 2nd Infantry Brigade - the Dunglen Expeditionary Force (Sudan).
H:        Was now a Brigadier-General.  May have been promoted about this time.
H: 1897/98 - Khartoum - Battle of Omdurman
H: 1898 - ADC (Ade de Camp) to the Queen (Victoria)
H: 1899 - Served as a Brigadier-General in Sirhind area of India
H: 1900 - Served as a Major-General with Highland Brigade in South Africa
H: 1901 - Knighted
H: 1902 - Served as a Major-General with forces in Ceylon
H: 1903 - Accused of being a homosexual.  Committed suicide.
H: Sources:  Campbell, David, "Major-Gneral Hector A. MacDonald", Douglas Howard, London, 1903.  Chambers Biographical Dictionary.
M: 3/4
L: 1/4
K: Bb
|: Bc \
| "Bb"d3/c/B | "Eb"g2f/d/ | "Bb"f2-f/g/ | "Bb"f2B/c/ | "Gm"d2c/B/ | "Eb"g2f/d/ |
| "Cm"c2-c/d/ | "F"c2d/f/ | "Gm"d3/c/B | "Eb"g2f/d/ | "Bb"f2B | "Eb"b2g | "Bb"f2B/d/ |
| "F"c2B | "Bb"B3- | "Bb"B :: df | "Eb"g2e/g/ | "Eb"b2a/g/ | "Bb"f2-f/g/ | "Bb"f2d/f/ |
| "Gm"g2f/d/ | "Gm"f2B/d/ | "Cm"c2-c/d/ | "F"c2d/f/ | "Gm"g2e/g/ | "Eb"b2a/g/ |
|1 "Bb"f2e/d/ | "Eb"b2e | "Bb"d2B/d/ | "F"c2B | "Bb"B3- | "Bb"B :|2 "Bb"f2B | "Eb"b2g | "Bb"f2B/d/ | "F"c2B | "Bb"B3- | "Bb"B |]

%%sep 1 1 500
%%sep 1 1 500

